X:479
T:Astridin valssi
Z:Jack Campin, http://www.campin.me.uk/
F:Jack Campin's Nine-Note Tunebook
% last edit 03-02-2013
T:Astrids vals
O:Norrbotten
M:3/4
L:1/8
Q:3/4=48
K:DMin
A2|D4  E2|F4    G2|F3G FE|D2 F2 A2|d3  c BA|G2 B2 d2|A6-|A4     :|
A2|d3c BA|G2 B2 d2|A3B AF|D4    E2|F6      |E2 D2 E2|D6 |D2 F2 A2|
   d3c BA|G2 B2 d2|A3B AF|D4    E2|F2 B2 A2|G2 F2 E2|D6-|D4     |]

